!!!OTL: I'll See You in My Dreams
!!!COM: Isham Jones
!!!LAR: Hugo Frey
!! "I'll See You in My Dreams" by Isham Jones
!! from "Barbershop Memories" compiled and arranged by Hugo Frey
!! copyright 1975 by EMI Music Publ. Ltd.; p. 15; alla breve; in G major
**kern	**kern	**kern	**kern
*Ivox	*Ivox	*Ivox	*Ivox
*M2/2	*M2/2	*M2/2	*M2/2
*G:	*G:	*G:	*G:
=1	=1	=1	=1
4D	4A	4d	4f#
4D#	4A	4c#	4fn
4E	4A	4cn	4e
4Fn	4A	4B	4e-
=2	=2	=2	=2
2.F#;	2.A;	2.c;	2.d;
4r	4r	4F#	4r
=3	=3	=3	=3
2C	2G	2E	2c
2C	2G	2E	2c
=4	=4	=4	=4
2C	2G	2A	2e
2C	2G	2B	2e
=5	=5	=5	=5
{2.C	{2.G	[1A	{2.e-
4BB	4F#	.	4d
=6	=6	=6	=6
1C}	1G}	1A]	1e-}
=7	=7	=7	=7
2GG	2G	2B	2d
2D	2G	2d	2B
=8	=8	=8	=8
2D	2G	2d	2B
2C#	2E	2f#	2A#
=9	=9	=9	=9
2.D	2.G	[1e	2.B
4G	4B	.	4d
=10	=10	=10	=10
{2F#	{2A#	1e]	{2c#
2Fn}	2An}	.	2cn}
=11	=11	=11	=11
2E	2G#	2e	2B
2BB	2G#	2E	2d
=12	=12	=12	=12
2BB	2A	2F#	2d#
2E	2B	2G#	2dn
=13	=13	=13	=13
4Fn	4A	4d	4d
4E	4G#	4B	4d
4F	4A	4d	4d
[4E	[4G	[4B	[4d
=14	=14	=14	=14
4E]	1G]	1B]	1d]
4D	.	.	.
{4C#	.	.	.
4BB}	.	.	.
=15	=15	=15	=15
2AA	2Gn	2B	2c#
2AA	2G	2E	2c#
=16	=16	=16	=16
2AA	2F#	2F#	2c#
2AA	2E	2G	2c#
=17	=17	=17	=17
4E	4G	4B	4c#
4E	4G	4A	4c#
4E-	4G	4B	4c#
[4D	[4F#	[4A	[4c
=18	=18	=18	=18
4D]	1F#]	1A]	1c]
4F#	.	.	.
4En	.	.	.
4D	.	.	.
=19	=19	=19	=19
2C	2G	2E	2c
2C	2G	2G	2c
=20	=20	=20	=20
2C	2G	2A	2e
2C	2G	2B	2e
=21	=21	=21	=21
{2.C	{2.G	[1A	{2.e-
4BB	4F#	.	4d
=22	=22	=22	=22
1C}	1G}	1A]	1e-}
=23	=23	=23	=23
2GG	2G	2B	2d
2D	2G	2d	2B
=24	=24	=24	=24
2D	2G	2e	2B
2C#	2E	2f#	2A#
=25	=25	=25	=25
2.D	2.G	[1e	2.B
4G	4B	.	4d
=26	=26	=26	=26
[{2F#	[{2A#	1e]	{2c#
2Fn}]	2An}]	.	2cn}
=27	=27	=27	=27
2D	2G#	2fn	2B
2E	2G#	2e	2B
=28	=28	=28	=28
2.Fn	2.G#	2.d	2.B
4E	4E	4E	4r
=29	=29	=29	=29
2BB	2F#	2B	2d#
2BB	2B	2A	2d#
=30	=30	=30	=30
2.E	2.B	2.G	2.e
4BB	4A	4F#	4d#
=31	=31	=31	=31
2C	2G	2E	2e
2C	2c	2G	2e
=32	=32	=32	=32
2C	2G	2A	2e-
2D	2F#	2B	2d
=33	=33	=33	=33
1GG	1D	1G	1B
=34	=34	=34	=34
2E	{4.G	{4.B	2e
.	8A}	8c}	.
2E-	2B-	2c#	2g
=35	=35	=35	=35
1Bn;	1d;	1e;	1g;
==	==	==	==
*-	*-	*-	*-
